X:1
T:Garden of God
T:Harey L. Brooks
T:Garden of God
T:Public Domain
T:Public Domain
T:Public Domain
C:Harey L. Brooks
Z:Public Domain
%%score ( 1 2 ) ( 3 4 )
L:1/8
M:4/4
K:Bb
V:1 treble 
V:2 treble 
V:3 bass 
V:4 bass 
V:1
 [B,D]>[CE] | [DF]2 [DB]>[Ec] [Fd]2 [Fc]>[FB] | [Gc]2 [GB]>[EG] [DF]2 [EA]>[EG] | %3
w: 1.~There’s a|beau- ti- ful ci- ty that|lies far a- way From the|
w: 2.~From the|sha- dows are lift- ed our|sor- row- ful eyes To the|
w: 3.~And there|all of our sor- rows shall|fade as a dream As we|
 [DF]2 [DB]>[Ec] [=Ed]2 [Ec]>[EB] | [Ec]6 [B,D]>[CE] | [DF]2 [DB]>[Ec] [Fd]2 [Fc]>[FB] | %6
w: earth with its bur- den of|tears, Where the|night ne- ver en- ters, but|
w: hills where the an- gels have|trod, And our|hearts ev- er yearn for our|
w: en- ter the coun- try of|rest, While be-|fore us in heav- en- ly|
 [Gc]2 [GB]>[EG] [EB]2 (A>G) | [DF]2 [DB]>[Fd] [Ec]2 [EG]>[EA] | [DB]6 z2 |: %9
w: sha- dow- less day Shines *|through e- ter- ni- ty’s years.|O|
w: home in the skies, Our *|in the gar- den of God.||
w: beau- ty shall gleam, The *|sions pre- pared for the blest.||
[M:3/4]"^Refrain" [DF]6"^Duet" | [DB]2 [Ec]2 [=E^c]2 | [Fd]6 | [DB]6 | (G2 A2 B2) | (c2 B2) [Ge]2 | %15
w: beau-|ti- ful ci-|ty,|ci-|ty * *|gold; * O|
w: ||||||
w: ||||||
 [Fd]6- | [Fd]4 z2 | [DF]6 | [DB]2 [Ec]2 [=E^c]2 | [Fd]6 | [DB]6 | [=EG]6 | [=Ec]4 [Ed]2 | [Ec]6- | %24
w: ti-||ful|ci- ty, trea-|sures|un-|told;|When shall|I|
w: |||||||||
w: |||||||||
 [Ec]4 z2 :|"^Quartet" [Fdf]6 | [Fe]4 [Fd]2 | (c4 G2) | (^C2 C2) [CG]2 | [DF]2 [DB]2 [Fd]2 | %30
w: |rest|in that|beau- *|ful * ci-|of gold? *|
w: ||||||
w: ||||||
 [Ec] [EG]3 [EA]2 | D F3 E2 | [DB]4 z2 |] %33
w: |||
w: |||
w: |||
V:2
 x2 | x8 | x8 | x8 | x8 | x8 | x6 ^C2 | x8 | x8 |:[M:3/4] x6 | x6 | x6 | x6 | e6 | e4 x2 | x6 | %16
w: ||||||on|||||||of|beau-||
w: ||||||home||||||||||
w: ||||||man-||||||||||
 x6 | x6 | x6 | x6 | x6 | x6 | x6 | x6 | x6 :| x6 | x6 | E6 | A4 x2 | x6 | x6 | B6- | x6 |] %33
w: |||||||||||ti-|ty|||||
w: |||||||||||||||||
w: |||||||||||||||||
V:3
 [B,,F,]>[B,,F,] | [B,,B,]2 [B,,B,]>[B,,B,] [B,,B,]2 [C,A,]>[D,B,] | %2
w: ~ ~|~ ~ ~ ~ ~ ~|
 [E,B,]2 [E,B,]>[E,B,] [B,,B,]2 [F,,C]>[F,,A,] | [B,,B,]2 [B,,B,]>[B,,B,] [C,G,]2 [C,G,]>[C,G,] | %4
w: ~ ~ ~ ~ ~ ~|~ ~ ~ ~ ~ ~|
 [F,A,]6 [B,,F,]>[B,,F,] | [B,,B,]2 [B,,B,]>[B,,B,] [B,,B,]2 [C,A,]>[D,B,] | %6
w: ~ ~ ~|~ ~ ~ ~ ~ ~|
 [E,B,]2 [E,B,]>[E,B,] [E,G,]2 [=E,B,]2 | [F,B,]2 [F,B,]>[F,B,] [F,A,]2 [F,C]>F, | [B,,F,]6 z2 |: %9
w: ~ ~ ~ ~ ~|~ ~ ~ ~ ~ ~|~|
[M:3/4] [B,,B,]2 D,2 F,2 | [B,,B,]2 z4 | B,,2 [D,F,B,]2 [D,F,B,]2 | B,,2 [D,F,B,]2 [D,F,B,]2 | %13
w: ~ ~ ~|~|~ ~ ~|~ ~ Beau-|
 F,,2 [C,F,]2 G,,2 | [A,,F,]2 [B,,G,]2 [C,A,]2 | B,,2 [D,F,B,]2 [D,F,B,]2 | %16
w: ti- ful ci-|ty of gold;|~ ~ ~|
 B,,2 [D,F,B,]2 [D,F,B,]2 | B,,2 D,2 F,2 | B,,2 z4 | B,,2 [D,F,B,]2 [D,F,B,]2 | %20
w: ~ ~ ~|~ ~ ~|~|~ ~ ~|
 B,,2 [D,F,B,]2 [D,F,B,]2 | [C,C]2 [G,B,C]2 [G,B,C]2 | G,,2 [G,B,C]2 [G,B,C]2 | [F,A,]2 G,2 F,2 | %24
w: ~ ~ ~|~ ~ ~|~ ~ ~|~ ~ ~|
 E,2 D,2 C,2 :| [B,,D]6 | [C,A,]4 [D,B,]2 | G,4 C2 | [=E,B,]2 [E,B,]2 [E,B,]2 | %29
w: ~ ~ ~|~|~ ~|~ rest|that ~ ~|
 [F,B,]2 [F,B,]2 [F,B,]2 | [F,A,] [F,C]3 [F,C]2 | B, A,3 G,2 | [B,,F,]4 z2 |] %33
w: ~ ~ ~|~ ci- ty|of gold. *||
V:4
 x2 | x8 | x8 | x8 | x8 | x8 | x8 | x15/2 F,/ | x8 |:[M:3/4] x6 | x6 | x6 | x6 | x6 | x6 | x6 | %16
w: |||||||~|||||||||
 x6 | x6 | x6 | x6 | x6 | x6 | x6 | x6 | x6 :| x6 | x6 | E,6 | x6 | x6 | x6 | B,,6- | x6 |] %33
w: |||||||||||in||||||

